images/50659343.svg

<?xml version="1.0" encoding="UTF-8"?>
<svg xmlns="http://www.w3.org/2000/svg" xmlns:xlink="http://www.w3.org/1999/xlink" width="300pt" height="300pt" viewBox="0 0 300 300" version="1.1">
<defs>
<g>
<symbol overflow="visible" id="glyph0-0">
<path style="stroke:none;" d="M 0.453125 1.59375 L 0.453125 -6.34375 L 4.953125 -6.34375 L 4.953125 1.59375 Z M 0.953125 1.09375 L 4.453125 1.09375 L 4.453125 -5.84375 L 0.953125 -5.84375 Z M 0.953125 1.09375 "/>
</symbol>
<symbol overflow="visible" id="glyph0-1">
<path style="stroke:none;" d="M 0.890625 -6.5625 L 4.65625 -6.5625 L 4.65625 -5.8125 L 1.765625 -5.8125 L 1.765625 -3.875 L 4.375 -3.875 L 4.375 -3.140625 L 1.765625 -3.140625 L 1.765625 0 L 0.890625 0 Z M 0.890625 -6.5625 "/>
</symbol>
<symbol overflow="visible" id="glyph0-2">
<path style="stroke:none;" d="M 0.890625 -6.5625 L 2.078125 -6.5625 L 4.984375 -1.078125 L 4.984375 -6.5625 L 5.84375 -6.5625 L 5.84375 0 L 4.65625 0 L 1.75 -5.484375 L 1.75 0 L 0.890625 0 Z M 0.890625 -6.5625 "/>
</symbol>
<symbol overflow="visible" id="glyph0-3">
<path style="stroke:none;" d="M 0.890625 -6.5625 L 1.765625 -6.5625 L 1.765625 -3.875 L 5 -3.875 L 5 -6.5625 L 5.890625 -6.5625 L 5.890625 0 L 5 0 L 5 -3.125 L 1.765625 -3.125 L 1.765625 0 L 0.890625 0 Z M 0.890625 -6.5625 "/>
</symbol>
<symbol overflow="visible" id="glyph0-4">
<path style="stroke:none;" d="M 3.546875 -5.953125 C 2.898438 -5.953125 2.382812 -5.710938 2 -5.234375 C 1.625 -4.753906 1.4375 -4.101562 1.4375 -3.28125 C 1.4375 -2.445312 1.625 -1.789062 2 -1.3125 C 2.382812 -0.832031 2.898438 -0.59375 3.546875 -0.59375 C 4.191406 -0.59375 4.703125 -0.832031 5.078125 -1.3125 C 5.453125 -1.789062 5.640625 -2.445312 5.640625 -3.28125 C 5.640625 -4.101562 5.453125 -4.753906 5.078125 -5.234375 C 4.703125 -5.710938 4.191406 -5.953125 3.546875 -5.953125 Z M 3.546875 -6.6875 C 4.460938 -6.6875 5.195312 -6.375 5.75 -5.75 C 6.300781 -5.132812 6.578125 -4.3125 6.578125 -3.28125 C 6.578125 -2.238281 6.300781 -1.410156 5.75 -0.796875 C 5.195312 -0.179688 4.460938 0.125 3.546875 0.125 C 2.617188 0.125 1.878906 -0.179688 1.328125 -0.796875 C 0.773438 -1.410156 0.5 -2.238281 0.5 -3.28125 C 0.5 -4.3125 0.773438 -5.132812 1.328125 -5.75 C 1.878906 -6.375 2.617188 -6.6875 3.546875 -6.6875 Z M 3.546875 -6.6875 "/>
</symbol>
</g>
</defs>
<g id="surface23345">
<rect x="0" y="0" width="300" height="300" style="fill:rgb(100%,100%,100%);fill-opacity:1;stroke:none;"/>
<path style="fill:none;stroke-width:1.2;stroke-linecap:butt;stroke-linejoin:miter;stroke:rgb(20%,80%,80%);stroke-opacity:1;stroke-miterlimit:10;" d="M 264.75 137.070312 L 255.28125 141.050781 "/>
<path style="fill:none;stroke-width:1.2;stroke-linecap:butt;stroke-linejoin:miter;stroke:rgb(0%,0%,0%);stroke-opacity:1;stroke-miterlimit:10;" d="M 255.28125 141.050781 L 245.8125 145.03125 "/>
<path style=" stroke:none;fill-rule:nonzero;fill:rgb(100%,100%,100%);fill-opacity:1;" d="M 261.75 131.570312 L 267.75 131.570312 L 267.75 142.570312 L 261.75 142.570312 Z M 261.75 131.570312 "/>
<g style="fill:rgb(20%,80%,80%);fill-opacity:1;">
  <use xlink:href="#glyph0-1" x="261.75" y="140.233398"/>
</g>
<path style="fill:none;stroke-width:1.2;stroke-linecap:butt;stroke-linejoin:miter;stroke:rgb(0%,0%,0%);stroke-opacity:1;stroke-miterlimit:10;" d="M 245.8125 145.03125 L 251.375 153.664062 "/>
<path style="fill:none;stroke-width:1.2;stroke-linecap:butt;stroke-linejoin:miter;stroke:rgb(20%,80%,80%);stroke-opacity:1;stroke-miterlimit:10;" d="M 251.375 153.664062 L 256.941406 162.300781 "/>
<path style="fill:none;stroke-width:1.2;stroke-linecap:butt;stroke-linejoin:miter;stroke:rgb(0%,0%,0%);stroke-opacity:1;stroke-miterlimit:10;" d="M 245.8125 145.03125 L 230.738281 158.992188 "/>
<path style="fill:none;stroke-width:1.2;stroke-linecap:butt;stroke-linejoin:miter;stroke:rgb(0%,0%,0%);stroke-opacity:1;stroke-miterlimit:10;" d="M 241.257812 124.996094 L 245.8125 145.03125 "/>
<path style=" stroke:none;fill-rule:nonzero;fill:rgb(100%,100%,100%);fill-opacity:1;" d="M 253.941406 156.800781 L 259.941406 156.800781 L 259.941406 167.800781 L 253.941406 167.800781 Z M 253.941406 156.800781 "/>
<g style="fill:rgb(20%,80%,80%);fill-opacity:1;">
  <use xlink:href="#glyph0-1" x="253.941406" y="165.463867"/>
</g>
<path style="fill:none;stroke-width:1.2;stroke-linecap:butt;stroke-linejoin:miter;stroke:rgb(0%,0%,0%);stroke-opacity:1;stroke-miterlimit:10;" d="M 230.738281 158.992188 L 211.113281 152.917969 "/>
<path style="fill:none;stroke-width:1.2;stroke-linecap:butt;stroke-linejoin:miter;stroke:rgb(0%,0%,0%);stroke-opacity:1;stroke-miterlimit:10;" d="M 211.113281 152.917969 L 206.558594 132.886719 "/>
<path style="fill:none;stroke-width:1.2;stroke-linecap:butt;stroke-linejoin:miter;stroke:rgb(0%,0%,0%);stroke-opacity:1;stroke-miterlimit:10;" d="M 206.558594 132.886719 L 221.632812 118.925781 "/>
<path style="fill:none;stroke-width:1.2;stroke-linecap:butt;stroke-linejoin:miter;stroke:rgb(0%,0%,0%);stroke-opacity:1;stroke-miterlimit:10;" d="M 206.558594 132.886719 L 190.109375 145.191406 "/>
<path style="fill:none;stroke-width:1.2;stroke-linecap:butt;stroke-linejoin:miter;stroke:rgb(0%,0%,0%);stroke-opacity:1;stroke-miterlimit:10;" d="M 199.9375 113.4375 L 206.558594 132.886719 "/>
<path style="fill:none;stroke-width:1.2;stroke-linecap:butt;stroke-linejoin:miter;stroke:rgb(0%,0%,0%);stroke-opacity:1;stroke-miterlimit:10;" d="M 221.632812 118.925781 L 241.257812 124.996094 "/>
<path style="fill:none;stroke-width:1.2;stroke-linecap:butt;stroke-linejoin:miter;stroke:rgb(0%,0%,0%);stroke-opacity:1;stroke-miterlimit:10;" d="M 190.109375 145.191406 L 173.320312 133.351562 "/>
<path style="fill:none;stroke-width:1.2;stroke-linecap:butt;stroke-linejoin:miter;stroke:rgb(0%,0%,0%);stroke-opacity:1;stroke-miterlimit:10;" d="M 185.644531 147.960938 L 172.214844 138.488281 "/>
<path style="fill:none;stroke-width:1.2;stroke-linecap:butt;stroke-linejoin:miter;stroke:rgb(0%,0%,0%);stroke-opacity:1;stroke-miterlimit:10;" d="M 188.25 165.652344 L 190.109375 145.191406 "/>
<path style="fill:none;stroke-width:1.2;stroke-linecap:butt;stroke-linejoin:miter;stroke:rgb(0%,0%,0%);stroke-opacity:1;stroke-miterlimit:10;" d="M 173.320312 133.351562 L 176.355469 123.539062 "/>
<path style="fill:none;stroke-width:1.2;stroke-linecap:butt;stroke-linejoin:miter;stroke:rgb(0%,0%,100%);stroke-opacity:1;stroke-miterlimit:10;" d="M 176.355469 123.539062 L 179.394531 113.726562 "/>
<path style="fill:none;stroke-width:1.2;stroke-linecap:butt;stroke-linejoin:miter;stroke:rgb(0%,0%,0%);stroke-opacity:1;stroke-miterlimit:10;" d="M 173.320312 133.351562 L 154.671875 141.972656 "/>
<path style="fill:none;stroke-width:1.2;stroke-linecap:butt;stroke-linejoin:miter;stroke:rgb(0%,0%,100%);stroke-opacity:1;stroke-miterlimit:10;" d="M 179.394531 113.726562 L 189.664062 113.582031 "/>
<path style="fill:none;stroke-width:1.2;stroke-linecap:butt;stroke-linejoin:miter;stroke:rgb(0%,0%,0%);stroke-opacity:1;stroke-miterlimit:10;" d="M 189.664062 113.582031 L 199.9375 113.4375 "/>
<path style=" stroke:none;fill-rule:nonzero;fill:rgb(100%,100%,100%);fill-opacity:1;" d="M 172.394531 108.226562 L 186.394531 108.226562 L 186.394531 119.226562 L 172.394531 119.226562 Z M 172.394531 108.226562 "/>
<g style="fill:rgb(0%,0%,100%);fill-opacity:1;">
  <use xlink:href="#glyph0-2" x="172.394531" y="116.889648"/>
  <use xlink:href="#glyph0-3" x="179.37207" y="116.889648"/>
</g>
<path style="fill:none;stroke-width:1.2;stroke-linecap:butt;stroke-linejoin:miter;stroke:rgb(0%,0%,0%);stroke-opacity:1;stroke-miterlimit:10;" d="M 201.910156 114.832031 L 207.832031 106.4375 "/>
<path style="fill:none;stroke-width:1.2;stroke-linecap:butt;stroke-linejoin:miter;stroke:rgb(100%,0%,0%);stroke-opacity:1;stroke-miterlimit:10;" d="M 207.832031 106.4375 L 213.753906 98.042969 "/>
<path style="fill:none;stroke-width:1.2;stroke-linecap:butt;stroke-linejoin:miter;stroke:rgb(0%,0%,0%);stroke-opacity:1;stroke-miterlimit:10;" d="M 197.960938 112.042969 L 203.882812 103.648438 "/>
<path style="fill:none;stroke-width:1.2;stroke-linecap:butt;stroke-linejoin:miter;stroke:rgb(100%,0%,0%);stroke-opacity:1;stroke-miterlimit:10;" d="M 203.882812 103.648438 L 209.800781 95.253906 "/>
<path style=" stroke:none;fill-rule:nonzero;fill:rgb(100%,100%,100%);fill-opacity:1;" d="M 207.777344 91.148438 L 215.777344 91.148438 L 215.777344 102.148438 L 207.777344 102.148438 Z M 207.777344 91.148438 "/>
<g style="fill:rgb(100%,0%,0%);fill-opacity:1;">
  <use xlink:href="#glyph0-4" x="207.777344" y="99.811523"/>
</g>
<path style="fill:none;stroke-width:1.2;stroke-linecap:butt;stroke-linejoin:miter;stroke:rgb(0%,0%,0%);stroke-opacity:1;stroke-miterlimit:10;" d="M 154.671875 141.972656 L 152.8125 162.429688 "/>
<path style="fill:none;stroke-width:1.2;stroke-linecap:butt;stroke-linejoin:miter;stroke:rgb(0%,0%,0%);stroke-opacity:1;stroke-miterlimit:10;" d="M 159.300781 144.457031 L 157.8125 160.824219 "/>
<path style="fill:none;stroke-width:1.2;stroke-linecap:butt;stroke-linejoin:miter;stroke:rgb(0%,0%,0%);stroke-opacity:1;stroke-miterlimit:10;" d="M 152.8125 162.429688 L 169.601562 174.273438 "/>
<path style="fill:none;stroke-width:1.2;stroke-linecap:butt;stroke-linejoin:miter;stroke:rgb(0%,0%,0%);stroke-opacity:1;stroke-miterlimit:10;" d="M 152.8125 162.429688 L 134.164062 171.050781 "/>
<path style="fill:none;stroke-width:1.2;stroke-linecap:butt;stroke-linejoin:miter;stroke:rgb(0%,0%,0%);stroke-opacity:1;stroke-miterlimit:10;" d="M 169.601562 174.273438 L 188.25 165.652344 "/>
<path style="fill:none;stroke-width:1.2;stroke-linecap:butt;stroke-linejoin:miter;stroke:rgb(0%,0%,0%);stroke-opacity:1;stroke-miterlimit:10;" d="M 169.4375 169.023438 L 184.355469 162.128906 "/>
<path style="fill:none;stroke-width:1.2;stroke-linecap:butt;stroke-linejoin:miter;stroke:rgb(0%,0%,0%);stroke-opacity:1;stroke-miterlimit:10;" d="M 134.164062 171.050781 L 117.375 159.210938 "/>
<path style="fill:none;stroke-width:1.2;stroke-linecap:butt;stroke-linejoin:miter;stroke:rgb(0%,0%,0%);stroke-opacity:1;stroke-miterlimit:10;" d="M 129.695312 173.816406 L 116.265625 164.34375 "/>
<path style="fill:none;stroke-width:1.2;stroke-linecap:butt;stroke-linejoin:miter;stroke:rgb(0%,0%,0%);stroke-opacity:1;stroke-miterlimit:10;" d="M 132.300781 191.511719 L 134.164062 171.050781 "/>
<path style="fill:none;stroke-width:1.2;stroke-linecap:butt;stroke-linejoin:miter;stroke:rgb(0%,0%,0%);stroke-opacity:1;stroke-miterlimit:10;" d="M 117.375 159.210938 L 98.722656 167.828125 "/>
<path style="fill:none;stroke-width:1.2;stroke-linecap:butt;stroke-linejoin:miter;stroke:rgb(0%,0%,0%);stroke-opacity:1;stroke-miterlimit:10;" d="M 98.722656 167.828125 L 96.863281 188.289062 "/>
<path style="fill:none;stroke-width:1.2;stroke-linecap:butt;stroke-linejoin:miter;stroke:rgb(0%,0%,0%);stroke-opacity:1;stroke-miterlimit:10;" d="M 103.351562 170.3125 L 101.863281 186.679688 "/>
<path style="fill:none;stroke-width:1.2;stroke-linecap:butt;stroke-linejoin:miter;stroke:rgb(0%,0%,0%);stroke-opacity:1;stroke-miterlimit:10;" d="M 98.722656 167.828125 L 81.933594 155.988281 "/>
<path style="fill:none;stroke-width:1.2;stroke-linecap:butt;stroke-linejoin:miter;stroke:rgb(0%,0%,0%);stroke-opacity:1;stroke-miterlimit:10;" d="M 96.863281 188.289062 L 113.652344 200.128906 "/>
<path style="fill:none;stroke-width:1.2;stroke-linecap:butt;stroke-linejoin:miter;stroke:rgb(0%,0%,0%);stroke-opacity:1;stroke-miterlimit:10;" d="M 113.652344 200.128906 L 132.300781 191.511719 "/>
<path style="fill:none;stroke-width:1.2;stroke-linecap:butt;stroke-linejoin:miter;stroke:rgb(0%,0%,0%);stroke-opacity:1;stroke-miterlimit:10;" d="M 113.488281 194.878906 L 128.410156 187.984375 "/>
<path style="fill:none;stroke-width:1.2;stroke-linecap:butt;stroke-linejoin:miter;stroke:rgb(0%,0%,0%);stroke-opacity:1;stroke-miterlimit:10;" d="M 132.300781 191.511719 L 149.089844 203.351562 "/>
<path style="fill:none;stroke-width:1.2;stroke-linecap:butt;stroke-linejoin:miter;stroke:rgb(0%,0%,0%);stroke-opacity:1;stroke-miterlimit:10;" d="M 80.921875 153.792969 L 71.597656 158.105469 "/>
<path style="fill:none;stroke-width:1.2;stroke-linecap:butt;stroke-linejoin:miter;stroke:rgb(100%,0%,0%);stroke-opacity:1;stroke-miterlimit:10;" d="M 71.597656 158.105469 L 62.273438 162.414062 "/>
<path style="fill:none;stroke-width:1.2;stroke-linecap:butt;stroke-linejoin:miter;stroke:rgb(0%,0%,0%);stroke-opacity:1;stroke-miterlimit:10;" d="M 82.949219 158.183594 L 73.625 162.492188 "/>
<path style="fill:none;stroke-width:1.2;stroke-linecap:butt;stroke-linejoin:miter;stroke:rgb(100%,0%,0%);stroke-opacity:1;stroke-miterlimit:10;" d="M 73.625 162.492188 L 64.300781 166.800781 "/>
<path style="fill:none;stroke-width:1.2;stroke-linecap:butt;stroke-linejoin:miter;stroke:rgb(0%,0%,0%);stroke-opacity:1;stroke-miterlimit:10;" d="M 81.933594 155.988281 L 82.863281 145.757812 "/>
<path style="fill:none;stroke-width:1.2;stroke-linecap:butt;stroke-linejoin:miter;stroke:rgb(0%,0%,100%);stroke-opacity:1;stroke-miterlimit:10;" d="M 82.863281 145.757812 L 83.796875 135.527344 "/>
<path style=" stroke:none;fill-rule:nonzero;fill:rgb(100%,100%,100%);fill-opacity:1;" d="M 55.285156 159.109375 L 63.285156 159.109375 L 63.285156 170.109375 L 55.285156 170.109375 Z M 55.285156 159.109375 "/>
<g style="fill:rgb(100%,0%,0%);fill-opacity:1;">
  <use xlink:href="#glyph0-4" x="55.285156" y="167.772461"/>
</g>
<path style="fill:none;stroke-width:1.2;stroke-linecap:butt;stroke-linejoin:miter;stroke:rgb(0%,0%,100%);stroke-opacity:1;stroke-miterlimit:10;" d="M 83.796875 135.527344 L 75.402344 129.609375 "/>
<path style="fill:none;stroke-width:1.2;stroke-linecap:butt;stroke-linejoin:miter;stroke:rgb(0%,0%,0%);stroke-opacity:1;stroke-miterlimit:10;" d="M 75.402344 129.609375 L 67.007812 123.6875 "/>
<path style=" stroke:none;fill-rule:nonzero;fill:rgb(100%,100%,100%);fill-opacity:1;" d="M 76.796875 130.027344 L 90.796875 130.027344 L 90.796875 141.027344 L 76.796875 141.027344 Z M 76.796875 130.027344 "/>
<g style="fill:rgb(0%,0%,100%);fill-opacity:1;">
  <use xlink:href="#glyph0-2" x="76.796875" y="138.69043"/>
  <use xlink:href="#glyph0-3" x="83.774414" y="138.69043"/>
</g>
<path style="fill:none;stroke-width:1.2;stroke-linecap:butt;stroke-linejoin:miter;stroke:rgb(0%,0%,0%);stroke-opacity:1;stroke-miterlimit:10;" d="M 67.007812 123.6875 L 57.28125 127 "/>
<path style="fill:none;stroke-width:1.2;stroke-linecap:butt;stroke-linejoin:miter;stroke:rgb(0%,0%,100%);stroke-opacity:1;stroke-miterlimit:10;" d="M 57.28125 127 L 47.558594 130.308594 "/>
<path style="fill:none;stroke-width:1.2;stroke-linecap:butt;stroke-linejoin:miter;stroke:rgb(0%,0%,0%);stroke-opacity:1;stroke-miterlimit:10;" d="M 63.503906 119.773438 L 55.722656 122.421875 "/>
<path style="fill:none;stroke-width:1.2;stroke-linecap:butt;stroke-linejoin:miter;stroke:rgb(0%,0%,100%);stroke-opacity:1;stroke-miterlimit:10;" d="M 55.722656 122.421875 L 47.945312 125.070312 "/>
<path style="fill:none;stroke-width:1.2;stroke-linecap:butt;stroke-linejoin:miter;stroke:rgb(0%,0%,0%);stroke-opacity:1;stroke-miterlimit:10;" d="M 66.71875 103.144531 L 67.007812 123.6875 "/>
<path style="fill:none;stroke-width:1.2;stroke-linecap:butt;stroke-linejoin:miter;stroke:rgb(0%,0%,100%);stroke-opacity:1;stroke-miterlimit:10;" d="M 47.558594 130.308594 L 41.402344 122.085938 "/>
<path style="fill:none;stroke-width:1.2;stroke-linecap:butt;stroke-linejoin:miter;stroke:rgb(100%,0%,0%);stroke-opacity:1;stroke-miterlimit:10;" d="M 41.402344 122.085938 L 35.25 113.859375 "/>
<path style=" stroke:none;fill-rule:nonzero;fill:rgb(100%,100%,100%);fill-opacity:1;" d="M 44.558594 124.808594 L 51.558594 124.808594 L 51.558594 135.808594 L 44.558594 135.808594 Z M 44.558594 124.808594 "/>
<g style="fill:rgb(0%,0%,100%);fill-opacity:1;">
  <use xlink:href="#glyph0-2" x="44.558594" y="133.47168"/>
</g>
<path style="fill:none;stroke-width:1.2;stroke-linecap:butt;stroke-linejoin:miter;stroke:rgb(100%,0%,0%);stroke-opacity:1;stroke-miterlimit:10;" d="M 35.25 113.859375 L 41.171875 105.464844 "/>
<path style="fill:none;stroke-width:1.2;stroke-linecap:butt;stroke-linejoin:miter;stroke:rgb(0%,0%,0%);stroke-opacity:1;stroke-miterlimit:10;" d="M 41.171875 105.464844 L 47.089844 97.070312 "/>
<path style=" stroke:none;fill-rule:nonzero;fill:rgb(100%,100%,100%);fill-opacity:1;" d="M 31.25 108.359375 L 39.25 108.359375 L 39.25 119.359375 L 31.25 119.359375 Z M 31.25 108.359375 "/>
<g style="fill:rgb(100%,0%,0%);fill-opacity:1;">
  <use xlink:href="#glyph0-4" x="31.25" y="117.022461"/>
</g>
<path style="fill:none;stroke-width:1.2;stroke-linecap:butt;stroke-linejoin:miter;stroke:rgb(0%,0%,0%);stroke-opacity:1;stroke-miterlimit:10;" d="M 47.089844 97.070312 L 66.71875 103.144531 "/>
<path style="fill:none;stroke-width:1.2;stroke-linecap:butt;stroke-linejoin:miter;stroke:rgb(0%,0%,0%);stroke-opacity:1;stroke-miterlimit:10;" d="M 47.625 102.296875 L 63.324219 107.15625 "/>
</g>
</svg>

<svg xmlns="http://www.w3.org/2000/svg" xmlns:xlink="http://www.w3.org/1999/xlink" width="300pt" height="300pt" viewBox="0 0 300 300"><defs><symbol overflow="visible"><path d="M.453 1.594v-7.938h4.5v7.938zm.5-.5h3.5v-6.938h-3.5zm0 0"/></symbol><symbol overflow="visible" id="a"><path d="M.89-6.563h3.766v.75h-2.89v1.938h2.61v.734h-2.61V0H.89zm0 0"/></symbol><symbol overflow="visible" id="b"><path d="M.89-6.563H2.08l2.906 5.485v-5.484h.86V0H4.656L1.75-5.484V0H.89zm0 0"/></symbol><symbol overflow="visible" id="c"><path d="M.89-6.563h.876v2.688H5v-2.688h.89V0H5v-3.125H1.766V0H.89zm0 0"/></symbol><symbol overflow="visible" id="d"><path d="M3.547-5.953c-.65 0-1.164.242-1.547.72-.375.48-.563 1.13-.563 1.952 0 .835.188 1.49.563 1.967.383.48.898.72 1.547.72.644 0 1.156-.24 1.53-.72.376-.476.564-1.132.564-1.968 0-.822-.187-1.474-.562-1.954-.375-.477-.887-.72-1.53-.72zm0-.734c.914 0 1.648.312 2.203.937.55.617.828 1.438.828 2.47 0 1.042-.277 1.87-.828 2.483-.555.617-1.29.922-2.203.922-.93 0-1.668-.305-2.22-.922C.774-1.41.5-2.237.5-3.28c0-1.033.273-1.853.828-2.47.55-.625 1.29-.938 2.22-.938zm0 0"/></symbol></defs><g><path fill="#fff" d="M0 0h300v300H0z"/><path d="M264.75 137.07l-9.47 3.98" stroke-width="1.2" stroke="#3cc" stroke-miterlimit="10" fill="none"/><path d="M255.28 141.05l-9.468 3.98" stroke-width="1.2" stroke="#000" stroke-miterlimit="10" fill="none"/><path d="M261.75 131.57h6v11h-6zm0 0" fill="#fff"/><use xlink:href="#a" x="261.75" y="140.233" fill="#3cc"/><path d="M245.813 145.03l5.562 8.634" stroke-width="1.2" stroke="#000" stroke-miterlimit="10" fill="none"/><path d="M251.375 153.664l5.566 8.637" stroke-width="1.2" stroke="#3cc" stroke-miterlimit="10" fill="none"/><path d="M245.813 145.03l-15.075 13.962M241.258 124.996l4.554 20.035" stroke-width="1.2" stroke="#000" stroke-miterlimit="10" fill="none"/><path d="M253.94 156.8h6v11h-6zm0 0" fill="#fff"/><use xlink:href="#a" x="253.941" y="165.464" fill="#3cc"/><path d="M230.738 158.992l-19.625-6.074M211.113 152.918l-4.554-20.03M206.56 132.887l15.073-13.96M206.56 132.887l-16.45 12.304M199.938 113.438l6.62 19.45M221.633 118.926l19.625 6.07M190.11 145.19l-16.79-11.838M185.645 147.96l-13.43-9.472M188.25 165.652l1.86-20.46M173.32 133.352l3.035-9.813" stroke-width="1.2" stroke="#000" stroke-miterlimit="10" fill="none"/><path d="M176.355 123.54l3.04-9.813" stroke-width="1.2" stroke="#00f" stroke-miterlimit="10" fill="none"/><path d="M173.32 133.352l-18.648 8.62" stroke-width="1.2" stroke="#000" stroke-miterlimit="10" fill="none"/><path d="M179.395 113.727l10.27-.145" stroke-width="1.2" stroke="#00f" stroke-miterlimit="10" fill="none"/><path d="M189.664 113.582l10.274-.144" stroke-width="1.2" stroke="#000" stroke-miterlimit="10" fill="none"/><path d="M172.395 108.227h14v11h-14zm0 0" fill="#fff"/><g fill="#00f"><use xlink:href="#b" x="172.395" y="116.89"/><use xlink:href="#c" x="179.372" y="116.89"/></g><path d="M201.91 114.832l5.922-8.394" stroke-width="1.2" stroke="#000" stroke-miterlimit="10" fill="none"/><path d="M207.832 106.438l5.922-8.395" stroke-width="1.2" stroke="#f00" stroke-miterlimit="10" fill="none"/><path d="M197.96 112.043l5.923-8.395" stroke-width="1.2" stroke="#000" stroke-miterlimit="10" fill="none"/><path d="M203.883 103.648l5.918-8.394" stroke-width="1.2" stroke="#f00" stroke-miterlimit="10" fill="none"/><path d="M207.777 91.148h8v11h-8zm0 0" fill="#fff"/><use xlink:href="#d" x="207.777" y="99.812" fill="#f00"/><path d="M154.672 141.973l-1.86 20.457M159.3 144.457l-1.488 16.367M152.813 162.43l16.79 11.843M152.813 162.43l-18.65 8.62M169.602 174.273l18.648-8.62M169.438 169.023l14.917-6.894M134.164 171.05l-16.79-11.84M129.695 173.816l-13.43-9.472M132.3 191.512l1.864-20.46M117.375 159.21l-18.652 8.618M98.723 167.828l-1.86 20.46M103.352 170.313l-1.49 16.367M98.723 167.828l-16.79-11.84M96.863 188.29l16.79 11.84M113.652 200.13l18.65-8.618M113.488 194.88l14.922-6.896M132.3 191.512l16.79 11.84M80.922 153.793l-9.324 4.312" stroke-width="1.2" stroke="#000" stroke-miterlimit="10" fill="none"/><path d="M71.598 158.105l-9.325 4.31" stroke-width="1.2" stroke="#f00" stroke-miterlimit="10" fill="none"/><path d="M82.95 158.184l-9.325 4.308" stroke-width="1.2" stroke="#000" stroke-miterlimit="10" fill="none"/><path d="M73.625 162.492l-9.324 4.31" stroke-width="1.2" stroke="#f00" stroke-miterlimit="10" fill="none"/><path d="M81.934 155.988l.93-10.23" stroke-width="1.2" stroke="#000" stroke-miterlimit="10" fill="none"/><path d="M82.863 145.758l.934-10.23" stroke-width="1.2" stroke="#00f" stroke-miterlimit="10" fill="none"/><path d="M55.285 159.11h8v11h-8zm0 0" fill="#fff"/><use xlink:href="#d" x="55.285" y="167.772" fill="#f00"/><path d="M83.797 135.527l-8.395-5.918" stroke-width="1.2" stroke="#00f" stroke-miterlimit="10" fill="none"/><path d="M75.402 129.61l-8.394-5.923" stroke-width="1.2" stroke="#000" stroke-miterlimit="10" fill="none"/><path d="M76.797 130.027h14v11h-14zm0 0" fill="#fff"/><g fill="#00f"><use xlink:href="#b" x="76.797" y="138.69"/><use xlink:href="#c" x="83.774" y="138.69"/></g><path d="M67.008 123.688L57.28 127" stroke-width="1.2" stroke="#000" stroke-miterlimit="10" fill="none"/><path d="M57.28 127l-9.72 3.31" stroke-width="1.2" stroke="#00f" stroke-miterlimit="10" fill="none"/><path d="M63.504 119.773l-7.78 2.65" stroke-width="1.2" stroke="#000" stroke-miterlimit="10" fill="none"/><path d="M55.723 122.422l-7.778 2.648" stroke-width="1.2" stroke="#00f" stroke-miterlimit="10" fill="none"/><path d="M66.72 103.145l.288 20.543" stroke-width="1.2" stroke="#000" stroke-miterlimit="10" fill="none"/><path d="M47.56 130.31l-6.158-8.224" stroke-width="1.2" stroke="#00f" stroke-miterlimit="10" fill="none"/><path d="M41.402 122.086l-6.152-8.227" stroke-width="1.2" stroke="#f00" stroke-miterlimit="10" fill="none"/><path d="M44.56 124.81h7v11h-7zm0 0" fill="#fff"/><use xlink:href="#b" x="44.559" y="133.472" fill="#00f"/><path d="M35.25 113.86l5.922-8.395" stroke-width="1.2" stroke="#f00" stroke-miterlimit="10" fill="none"/><path d="M41.172 105.465l5.918-8.395" stroke-width="1.2" stroke="#000" stroke-miterlimit="10" fill="none"/><path d="M31.25 108.36h8v11h-8zm0 0" fill="#fff"/><use xlink:href="#d" x="31.25" y="117.022" fill="#f00"/><path d="M47.09 97.07l19.63 6.075M47.625 102.297l15.7 4.86" stroke-width="1.2" stroke="#000" stroke-miterlimit="10" fill="none"/></g></svg>
